def movement():
  while(True):
    movej([0.4292424015232029, -1.8064272174113132, 0.9922569133895385, 5.008781609238136, -1.622731099656388, 0.01861445096356013],a = 0.15,v = 0.15,r = 0.02)
    movej([0.37732183830921895, -1.8776542327291565, 1.2188502992057675, 4.8734993927812305, -1.5172220521255892, -0.0696862591309057],a = 0.15,v = 0.15,r = 0.02)
    movej([0.3334651214975304, -1.9198514551334167, 1.403323990062348, 4.762042879869754, -1.4179965246871138, -0.15327151871027528],a = 0.15,v = 0.15,r = 0.02)
    movej([0.2985395956463964, -1.9380135135648642, 1.5586881297081243, 4.6640934650517805, -1.324994388731138, -0.23259995223749197],a = 0.15,v = 0.15,r = 0.02)
    movej([0.27274950511719354, -1.933867184844285, 1.6907880474431174, 4.573022018118268, -1.2375819318688523, -0.3082034596267019],a = 0.15,v = 0.15,r = 0.02)
    movej([0.25582470698591997, -1.9079419551759917, 1.8023350880610831, 4.484311594982701, -1.1547315943568748, -0.38070194818739045],a = 0.15,v = 0.15,r = 0.02)
    movej([0.24719833623135623, -1.8604760799585822, 1.894356882368796, 4.3952753465135075, -1.0751862845623887, -0.45082242929846017],a = 0.15,v = 0.15,r = 0.02)
    movej([0.2461393013097114, -1.7920316409899808, 1.9668843776895626, 4.305127843945303, -0.9975741377096337, -0.5194279063551334],a = 0.15,v = 0.15,r = 0.02)
    movej([0.2518356062633291, -1.7040013712158064, 2.019392449844082, 4.21512091747366, -0.9204650430991561, -0.5875579627482338],a = 0.15,v = 0.15,r = 0.02)
    movej([0.30140733736422176, -1.6092450653425825, 2.0783683814035623, 4.024798287643159, -0.930325379978524, -0.5267406721449339],a = 0.15,v = 0.15,r = 0.02)
    movej([0.35264097418290996, -1.4949344613128863, 2.11499940635702, 3.837192571021813, -0.9423489157462557, -0.46489952548796193],a = 0.15,v = 0.15,r = 0.02)
    movej([0.40502527918742326, -1.3653063862303618, 2.1279400523926686, 3.6584979001053393, -0.9564879651128362, -0.4028587923966985],a = 0.15,v = 0.15,r = 0.02)
    movej([0.4578886903247493, -1.2261380026738227, 2.1167292342361854, 3.4956085450378582, -0.9725559657082289, -0.3415694285652658],a = 0.15,v = 0.15,r = 0.02)
    movej([0.5104543704587451, -1.0833936793170995, 2.082017925502596, 3.3544605894758917, -0.9902280224990063, -0.282010313303149],a = 0.15,v = 0.15,r = 0.02)
    movej([0.561903213622263, -0.9418162001248458, 2.025380806179932, 3.2387452877887677, -1.0090633838303669, -0.22509637408153257],a = 0.15,v = 0.15,r = 0.02)
    movej([0.6114369042173103, -0.8041836637804605, 1.9488298264706605, 3.149608858099814, -1.0285451865134692, -0.1716075781072731],a = 0.15,v = 0.15,r = 0.02)
    movej([0.6583418753174358, -0.6713561500571101, 1.8542644943960518, 3.086227881357371, -1.0481325659717353, -0.1221371092788769],a = 0.15,v = 0.15)
    halt
    end
  end
end
